X:033
%%topmargin 3cm
T:Flowers of Edinburgh
C:Arranged by N. F. Tolman
B:The Nelson Music Collection
N:Newton F. Tolman & K. Dep. Gilbert
Z:Transcribed by Ralph Palmer
R:Reel
L:1/8
M:C|
K:G
GE | D2 ((3DEF) G2 GA | BGBd cBAG | FGEF DEFG | AFdF E2 ((3GFE) |
D2 DE G2 GA | BGBd efge | dcBA GFGA | B2 G2 G2 ::
((3def) | g2 gf gbag | f3 e fagf | edef gfed | B2 ed ef ((3gfe) |
dBGB d2 ((3Bcd) | egfa g2 fe |[1 dcBA GFGA | B2 G2 G2 :][2 dBde gfga | b2 g2 g2 |]

